X: 6840
T: Charlie Lennon's
R: reel
M: 4/4
K: Dmajor
|:EuF (3AAA dFAF|DuF (3FFF GBAG|EuF (3AAA dFAF|FuG (3GGG EFGE|
EuF (3AAA dFAF|DuF (3FFF GBAG|FAde fedf|edce adgG:|
|:defg afff|eaaa affe|defg afff|eaag fdec|
defg afff|eAAf (3ggg fg|afge fded|ceag fdec:|

